assets/img/home/Equals.svg

<?xml version="1.0" encoding="UTF-8" standalone="no"?>
<svg xmlns="http://www.w3.org/2000/svg" height="8px" width="11px" version="1.1" xmlns:xlink="http://www.w3.org/1999/xlink" viewBox="0 0 11 8"><!-- Generator: Sketch 52.4 (67378) - http://www.bohemiancoding.com/sketch -->
 <title>Equals</title>
 <desc>Created with Sketch.</desc>
 <g id="Pages" fill-rule="evenodd" fill="none">
  <g id="Homepage@2x" fill="#D8D8D8" transform="translate(-555 -3647)">
   <g id="Group-13" transform="translate(245 3582)">
    <path id="Equals" d="m321 65v3h-11v-3h11zm0 5v3h-11v-3h11z"/>
   </g>
  </g>
 </g>
</svg>

<?xml version="1.0" encoding="UTF-8"?>
<svg width="11px" height="8px" viewBox="0 0 11 8" version="1.1" xmlns="http://www.w3.org/2000/svg" xmlns:xlink="http://www.w3.org/1999/xlink">
    <!-- Generator: Sketch 52.4 (67378) - http://www.bohemiancoding.com/sketch -->
    <title>Equals</title>
    <desc>Created with Sketch.</desc>
    <g id="Pages" stroke="none" stroke-width="1" fill="none" fill-rule="evenodd">
        <g id="Homepage@2x" transform="translate(-555.000000, -3647.000000)" fill="#D8D8D8">
            <g id="Group-13" transform="translate(245.000000, 3582.000000)">
                <path d="M321,65 L321,68 L310,68 L310,65 L321,65 Z M321,70 L321,73 L310,73 L310,70 L321,70 Z" id="Equals"></path>
            </g>
        </g>
    </g>
</svg>
